icon/pk/snake-zodiac.svg

<svg viewBox="0 0 48 48" fill="none" xmlns="http://www.w3.org/2000/svg" height="1em" width="1em">
  <g clip-path="url(#clip0_12561_5861)">
    <path d="M35.7858 39.083L38.6142 36.2546C40.9574 33.9114 40.9574 30.1125 38.6142 27.7693V27.7693C36.2711 25.4262 32.4721 25.4262 30.1289 27.7693L27.6675 30.2308" stroke="black" stroke-width="4" stroke-linecap="round"/>
    <path d="M17.4011 23.5263L24.4721 16.4553C26.8153 14.1121 26.8153 10.3131 24.4721 7.97V7.97C22.129 5.62685 18.33 5.62685 15.9869 7.97L8.91578 15.0411" stroke="black" stroke-width="4" stroke-linecap="round"/>
    <path d="M18.2827 22.6454L9.62259 31.3055C7.27945 33.6487 7.27945 37.4477 9.62259 39.7908V39.7908C11.9657 42.134 15.7647 42.134 18.1079 39.7908L28.0074 29.8913" stroke="black" stroke-width="4" stroke-linecap="round"/>
    <path d="M15 8.99969H7" stroke="black" stroke-width="4" stroke-linecap="round" stroke-linejoin="round"/>
  </g>
  <defs>
    <clipPath id="clip0_12561_5861">
      <rect width="48" height="48" fill="white"/>
    </clipPath>
  </defs>
</svg>

<svg width="48" height="48" fill="none" xmlns="http://www.w3.org/2000/svg"><g clip-path="url(#a)" stroke="#000" stroke-width="4" stroke-linecap="round"><path d="m35.786 39.083 2.828-2.828a6 6 0 0 0 0-8.486v0a6 6 0 0 0-8.485 0l-2.462 2.462M17.401 23.526l7.071-7.07a6 6 0 0 0 0-8.486v0a6 6 0 0 0-8.485 0l-7.071 7.071"/><path d="m18.283 22.645-8.66 8.66a6 6 0 0 0 0 8.486v0a6 6 0 0 0 8.485 0l9.9-9.9"/><path d="M15 9H7" stroke-linejoin="round"/></g><defs><clipPath id="a"><path fill="#fff" d="M0 0h48v48H0z"/></clipPath></defs></svg>
